X: 150
T:Lass O' Gowrie
M:2/4
L:1/8
K:C
G/2F/2|"C"EG GA/2B/2|"C"c>d cB|"F"AG Ac|"G"d>e dG/2F/2|"C"EG GA/2B/2|!
"C"c>d ef|"C"gc gf/2e/2|"G7"d2 "C"c :||: g/2f/2|"C"eg ce/2f/2|"C"g/2f/2e
/2f/2 "A7"gf/2e/2|!
"Dm"fa df/2g/2|"Dm"a/2g/2f/2g/2 a"G7"g/2f/2|"C"eg "G"d>e|"Am"cA "G"G"F"a
|"C"gc gf/2e/2|"G7"d2 "C"c:||
